X: 27
T: Robinet / Se tu te marie / H\'elas pourquoy
N: Derived from Ano3033-Robinet__Se_tu_te_marie__Helas_pourquoy--Escorial_B.krn
C: Anonymous
%%abc-version 2.0
%%abcx-abcm2ps-target-version 5.9.1 (29 Sep 2008)
%%abc-creator hum2abc beta
%%abcx-conversion-date 2019/02/16 20:18:27
%%abc-edited-by Jesse Rodin
%%abc-edited-by Chris Gage 03-06-2015
%%abcx-initial-encoding-date 2015/03/13/
%%humdrum-veritas 2682481207
%%humdrum-veritas-data 3416918895
%%linebreak <none>
%%barnumbers 0
L: 1/4
M: 3/1
Q: 1/2=120
V: 1 clef=treble
V: 2 clef=bass
V: 3 clef=bass
K: F
[V:1] c6A2GAB2 | 
[V:2] z12 | 
[V:3] C4C2C2C2D2 | 
[V:1] AFE2F3GA2c2 | 
[V:2] z12 | 
[V:3] D2C2D2A,2A,2A,2 | 
[V:1] B2A3FG2A4 | 
[V:2] z12 | 
[V:3] G,2F,2B,2B,2A,4 | 
[V:1] z4F4E4 | 
[V:2] C2C2A,2B,2C4 | 
[V:3] F,8C,4 | 
[V:1] D3B,C2F4E2 | 
[V:2] C2B,2A,2F,2G,2G,2 | 
[V:3] F,2G,2F,2C3A,B,2 | 
[V:1] F2E2C3DE3D | 
[V:2] F,8C,4 | 
[V:3] C4A,4G,2C2- | 
[V:1] D2C2DCC4=B,2 | 
[V:2] F,2E,2F,2C,2D,4 | 
[V:3] C2G,2A,2G,4F,2 | 
[V:1] C4z4z4 | 
[V:2] C,8F,4 | 
[V:3] G,4z2C2C2C2 | 
[V:1] E2F2D4A2c2- | 
[V:2] E,2D,2G,4C4 | 
[V:3] C2D2D2B,2A,2A,2 | 
[V:1] cBA2F3GA2B2 | 
[V:2] A,2F,4D,2F,2G,2 | 
[V:3] C2C2C2D2C2B,2 | 
[V:1] cBA2D2G4^F2 | 
[V:2] C4B,2G,2A,4 | 
[V:3] A,4G,2D4C2 | 
[V:1] G4z4z4 | 
[V:2] G,12 | 
[V:3] D12 | 
[V:1] E2E2F2G2A4 | 
[V:2] C,12 | 
[V:3] z2C2C2C2C2D2 | 
[V:1] B2c2B2A2F3D | 
[V:2] z12 | 
[V:3] D2C2D2A,2A,2A,2 | 
[V:1] E2A3GG2A2F2 | 
[V:2] z12 | 
[V:3] G,2F,2B,2B,2A,4 | 
[V:1] E4z2D2E2A2- | 
[V:2] C2C2A,2B,2C4 | 
[V:3] C,12 | 
[V:1] AGG2FGF3EED | 
[V:2] C2B,2A,2F,2G,2G,2 | 
[V:3] G,4D,2F,2C,4 | 
[V:1] F4z2F2C4 | 
[V:2] F,12 | 
[V:3] C8z2C2 | 
[V:1] D4z2E2F4 | 
[V:2] z2F,2C,4z2D,2 | 
[V:3] A,4G,4F,4 | 
[V:1] G2A2c3BB2A2 | 
[V:2] C,8z2F,2 | 
[V:3] z2C2A,2C2D2C2 | 
[V:1] D2G2AFF3EED | 
[V:2] F,2B,2A,2F,2G,4 | 
[V:3] A,2G,2F,E,D,2C,4 | 
[V:1] F12 |]  
[V:2] F,12 |]  
[V:3] C12 |]  



